!! 00000] TT[WS
!!!OTL: Yujia le
!!!ARE: Asia, China,ÿShanxi Heshun
!! Ethnic Group: Han
!! WI, 119 (1)
!!!SCT: J0140
!!!YEM: Copyright 1995, estate of Helmut Schaffrath.
**kern
*ICvox
*Ivox
*M2/4
*k[b-]
*F:
{4cc
4cc
=1
4cc
8a
8cc
=2
8dd
8ee
8dd
8cc
=3
2dd}
=4
{4ff
8ff
8dd
=5
8cc
8dd
8cc
8a
=6
8g
8a
8g
8f
=7
2g}
=8
{4cc
8cc
8a
=9
8cc
8dd
8cc
8a
=10
4g
8a
8g
=11
4.f
8d}
=12
{8f
8g
8a
8cc
=13
8g
8f
8e
8d
=14
4.c
8d
=15
2c}
==
!!!AGN: Xiaodiao. Qingge
!!!ONB: ESAC (Essen Associative Code) Database: CHINA
!!!AMT: simple duple
!!!AIN: vox
!!!EED: Helmut Schaffrath
!!!EEV: 1.0
*-
